X:099
T: Jackson's Morning Brush
N: O'Farrell's Pocket Companion v.2 (Sky ed. p.56)
N: "Irish"
M: 6/8
L: 1/8
R: jig
Q: 320
K: D
z|DFE EFD|DFA AFA|BAB d2f|gfg e3|
DFE EFD|DFA AFA|BAB d2e|fdd d2 :|
g|fed fad|fag fdB|AFA dfa|gfg e2g|
fed fad|fag fdB|AFA d2e|fdd d2 :|
g|fdf ece|dcB AFA|DFA d2f|gee e2g|
fdf ece|dcB AFA|DFA dze|fdd d2 :|
